X:1
T:I’m Abiding in Canaan Land
T:Haldor Lillenas
T:I’m Abiding in Canaan Land
T:Public Domain
T:Public Domain
T:Public Domain
C:Haldor Lillenas
Z:Public Domain
%%score ( 1 2 ) ( 3 4 )
L:1/8
M:4/4
K:Bb
V:1 treble 
V:2 treble 
V:3 bass 
V:4 bass 
V:1
 [B,D][CE] | [DF] [DF]2 [^C=E] [DF]2 [DB]2 | [Fd]2 [FB]2 ([Ec][EB])[EA][EG] | %3
w: 1.~I’m a-|bid- ing to- day in|Ca- naan land, * In the|
w: 2.~’Tis a|fore- taste of co- ming|glo- ry yonder * In that|
w: 3.~Won’t you|en- ter the land of|peace and blessing, * And its|
 [DF]2 [DB]2 [Fd]2 [Fd]2 | [Fc]6 [B,D][CE] | [DF]2 [DB]2 [Fd]2 [FB][FB] | %6
w: sun- light of God’s|love; And the|Sav- ior’s face ev- er|
w: land be- yond the|sky, Where in|bliss un- told I shall|
w: rap- ture with me|share? All your|sin and guilt to the|
 [Ec]2 [EG]2 [Ec][Ge][Gd][Gc] | [FB][FB][FB][DF] [Fd]2 [Ec]2 | [DB]6 |:"^Refrain" [B,D][CE] | %10
w: shines be- fore me As I|jour- ney to my home a-|bove.|I’m a-|
w: ev- er wan- der In the|bless- èd home- land by and|by.||
w: Lord con- fess- ing, You will|have a bless- èd wel- come|there.||
 [DF] [DF]2 [^C=E] [DF]2 [DB]2 | (F=EFG F2) [_Ad][Ac] | [GB] [GB]2 [^FA] [GB]2 [EG]2 | %13
w: bid- ing in Ca- naan|land! * * * * I’m a-|ing in Ca- naan land!|
w: |||
w: |||
 [DF]6 [DF][DG] | [CF][CE][CE][EA] [Ec]2 [EG][EA] | [EG][DF][DF][DB] [Fd]2 [Fd][Fd] | %16
w: Since He washed|my sin a- way, It is glo-|ry all the way, I’m a- bid-|
w: |||
w: |||
 [Fc] [Fc]2 [Fc] [=Ed]2 [Ec]2 | (F2 D2 DC) :| [DF][DF] | [EG][EG][EG][EG] [FB]2 [FB][FB] | %20
w: ing in Ca- naan land!|All * * *|sins have|been for- giv’n, And I’m on my|
w: ||||
w: ||||
 [Fc][Fc][Fd][_Ad] [Ge]2 [Ge][Ge] | [Fd] [Fd]2 [DB] [Fd]2 [Ec]2 | [DB]6 |] %23
w: way to Heav’n, I’m a- bid- ing|in Ca- naan land! *||
w: |||
w: |||
V:2
 x2 | x8 | x8 | x8 | x8 | x8 | x8 | x8 | x6 |: x2 | x8 | d6 x2 | x8 | x8 | x8 | x8 | x8 | F6 :| %18
w: |||||||||||bid-||||||my|
 x2 | x8 | x8 | x8 | x6 |] %23
w: |||||
V:3
 [B,,F,][B,,F,] | [B,,B,] [B,,B,]2 [B,,B,] [B,,B,]2 [B,,F,]2 | %2
w: ~ ~|~ ~ ~ ~ ~|
 [B,,B,]2 [D,B,]2 [E,G,]2 [E,G,][E,B,] | [B,,B,]2 [B,,B,]2 [B,,B,]2 [B,,B,]2 | %4
w: ~ ~ ~ ~ ~|~ ~ ~ ~|
 (F,4 F,E,)[D,F,][C,F,] | [B,,B,]2 [B,,F,]2 [B,,B,]2 [D,B,][D,B,] | %6
w: ~ * * ~ ~|~ ~ ~ ~ ~|
 [E,G,]2 [E,B,]2 [E,G,][C,C][C,=B,][E,C] | [F,D][F,D][F,D][F,B,] [F,B,]2 [F,A,]2 | [B,,B,]6 |: %9
w: ~ ~ ~ ~ ~ ~|~ ~ ~ ~ ~ ~|~|
 [B,,D,F,][B,,C,F,] | [B,,B,] [B,,B,]2 [B,,B,] [B,,B,]2 [B,,F,]2 | %11
w: ~ ~|~ ~ ~ ~ ~|
 [B,,B,][B,,B,][B,,B,][B,,B,] [B,,B,]2 [D,B,][D,B,] | [E,E] [E,E]2 [E,E] (E,F,)(G,A,) | %13
w: in Ca- naan land! ~ ~ ~|~ ~ ~ ~ * ~ *|
 B,B,F,D, B,,2 [B,,B,][B,,B,] | [F,A,][F,A,][F,A,][F,C] [F,A,]2 [F,A,][F,A,] | %15
w: naan land! ~ ~ ~ ~ ~|~ ~ ~ ~ ~ ~ ~|
 [B,,B,][B,,B,][B,,B,][B,,B,] [B,,B,]2 [B,,B,][B,,B,] | [C,A,] [C,A,]2 [C,A,] [C,B,]2 [C,B,]2 | %17
w: ~ ~ ~ ~ ~ ~ ~|~ in Ca- naan land!|
 [F,A,]2 [F,B,]2 [F,B,][E,F,] :| [B,,B,][B,,B,] | [E,B,][E,B,][E,B,][E,B,] [D,B,]2 [D,B,][D,B,] | %20
w: |||
 [F,A,][F,A,]B,B, [E,B,]2 [E,B,][E,B,] | [F,B,] [F,B,]2 G, [F,B,]2 F,2 | [B,,F,]6 |] %23
w: |||
V:4
 x2 | x8 | x8 | x8 | A,6 x2 | x8 | x8 | x8 | x6 |: x2 | x8 | x8 | x4 E2 B,2 | B,6 x2 | x8 | x8 | %16
w: ||||~||||||||in Ca-|~|||
 x8 | x6 :| x2 | x8 | x2 B,B, x4 | x3 G, x F,2 x | x6 |] %23
w: |||||||

